svgs/via_browser.svg

<svg width="192" height="192" viewBox="0 0 192 192" fill="none" xmlns="http://www.w3.org/2000/svg"><path d="M106 36v-6a6 6 0 0 0-4.431 1.954L106 36Zm-84 92-5.961-.681a6 6 0 0 0 3.116 5.964L22 128Zm89.986-59.35 5.902-1.082-5.902 1.082ZM47.638 56.397l-.543-5.976.543 5.976Zm89.224-17.559-5.742 1.743 5.742-1.743Zm-4.905 116.408-1.123-5.894 1.123 5.894Zm-4.683-3.208 5.901-1.082-5.901 1.082Zm38.354-3.205 1.123 5.894-1.123-5.894Zm3.079-5.092-5.741 1.743 5.741-1.743Zm-123.518-3.255-2.845 5.283 2.844-5.283Zm4.91-.892 4.522 3.944-4.522-3.944Zm-30.944-6.311 23.189 12.486 5.69-10.566-23.19-12.486-5.689 10.566Zm145.35 9.656-33.671 6.413 2.245 11.788 33.672-6.413-2.246-11.788ZM106 42h27.034V30H106v12Zm25.12-1.419 31.846 104.903 11.483-3.485-31.846-104.904-11.483 3.486Zm-103.159 88.1 7.63-66.765-11.922-1.363-7.63 66.766 11.922 1.362Zm5.825-65 14.395-1.31-1.086-11.95-14.396 1.309 1.087 11.95Zm99.389 87.275-15.287-83.388-11.804 2.164 15.288 83.388 11.803-2.164Zm-15.287-83.388-5.986-32.65-11.804 2.164 5.986 32.65 11.804-2.164Zm-10.424-2.862L45.578 135.65l9.042 7.889 61.887-70.944-9.043-7.888ZM46 60.38v34.763h12V60.38H46Zm55.569-28.426-54 59.143 8.862 8.092 54-59.143-8.862-8.092Zm-54 59.143-30 32.857 8.862 8.092 30-32.857-8.862-8.092Zm.612-28.725A2 2 0 0 1 46 60.38h12c0-5.88-5.05-10.491-10.905-9.959l1.086 11.95Zm-12.59-.456a2 2 0 0 1-1.806 1.765L32.7 51.73a10 10 0 0 0-9.03 8.823l11.923 1.363ZM133.035 42a2 2 0 0 1-1.914-1.419l11.483-3.486a10 10 0 0 0-9.57-7.095v12Zm-2.2 107.352a2 2 0 0 1 2.341 1.604l-11.803 2.164c1.001 5.459 6.255 9.059 11.707 8.02l-2.245-11.788Zm35.917 5.375c5.838-1.112 9.424-7.041 7.698-12.728l-11.483 3.485a2 2 0 0 1 1.539-2.545l2.246 11.788Zm-124.407-8.958a10 10 0 0 0 12.276-2.231l-9.042-7.889a2.002 2.002 0 0 1 2.455-.446l-5.69 10.566Z" fill="#000"/></svg>

<svg id="vector" xmlns="http://www.w3.org/2000/svg" width="192" height="192" viewBox="0 0 192 192"><path fill="#000000" d="M106,36V30C104.314,30 102.706,30.709 101.569,31.954L106,36ZM22,128L16.039,127.319C15.76,129.757 16.994,132.119 19.155,133.283L22,128ZM111.986,68.65L117.888,67.568L117.888,67.568L111.986,68.65ZM47.638,56.397L47.095,50.421L47.638,56.397ZM136.862,38.838L131.12,40.581L136.862,38.838ZM131.957,155.246L130.834,149.352L131.957,155.246ZM127.274,152.038L133.175,150.956L127.274,152.038ZM165.628,148.833L166.751,154.727L165.628,148.833ZM168.707,143.741L162.966,145.484L168.707,143.741ZM45.188,140.486L42.344,145.769L45.188,140.486ZM50.099,139.594L54.62,143.538L50.099,139.594ZM19.155,133.283L42.344,145.769L48.033,135.203L24.845,122.717L19.155,133.283ZM164.505,142.939L130.834,149.352L133.079,161.14L166.751,154.727L164.505,142.939ZM106,42H133.034V30H106V42ZM131.12,40.581L162.966,145.484L174.449,141.999L142.603,37.095L131.12,40.581ZM27.961,128.681L35.591,61.916L23.669,60.553L16.039,127.319L27.961,128.681ZM33.785,63.681L48.181,62.372L47.095,50.421L32.699,51.73L33.785,63.681ZM133.175,150.956L117.888,67.568L106.084,69.732L121.372,153.12L133.175,150.956ZM117.888,67.568L111.902,34.918L100.098,37.082L106.084,69.732L117.888,67.568ZM107.464,64.706L45.578,135.649L54.62,143.538L116.507,72.594L107.464,64.706ZM46,60.38V95.143H58V60.38H46ZM101.569,31.954L47.569,91.097L56.431,99.188L110.431,40.046L101.569,31.954ZM47.569,91.097L17.569,123.954L26.431,132.046L56.431,99.188L47.569,91.097ZM48.181,62.372C47.01,62.478 46,61.556 46,60.38H58C58,54.5 52.951,49.889 47.095,50.421L48.181,62.372ZM35.591,61.916C35.484,62.858 34.73,63.595 33.785,63.681L32.699,51.73C27.978,52.159 24.207,55.844 23.669,60.553L35.591,61.916ZM133.034,42C132.153,42 131.376,41.424 131.12,40.581L142.603,37.095C141.324,32.881 137.438,30 133.034,30V42ZM130.834,149.352C131.924,149.145 132.975,149.865 133.175,150.956L121.372,153.12C122.373,158.579 127.627,162.179 133.079,161.14L130.834,149.352ZM166.751,154.727C172.589,153.615 176.175,147.686 174.449,141.999L162.966,145.484C162.621,144.347 163.338,143.161 164.505,142.939L166.751,154.727ZM42.344,145.769C46.455,147.983 51.551,147.057 54.62,143.538L45.578,135.649C46.192,134.946 47.211,134.761 48.033,135.203L42.344,145.769Z" id="path_0"/></svg>
